Newaita-dark/apps/128/skanlite.svg

<?xml version="1.0" encoding="UTF-8"?>
<svg xmlns="http://www.w3.org/2000/svg" xmlns:xlink="http://www.w3.org/1999/xlink" width="128pt" height="128pt" viewBox="0 0 128 128" version="1.1">
<defs>
<linearGradient id="linear0" gradientUnits="userSpaceOnUse" x1="254" y1="233.5" x2="254" y2="254.666672" gradientTransform="matrix(0.250024,0,0,0.250024,-0.0000152602,53.75514)">
<stop offset="0" style="stop-color:rgb(0%,0%,0%);stop-opacity:0.27451;"/>
<stop offset="1" style="stop-color:rgb(0%,0%,0%);stop-opacity:0;"/>
</linearGradient>
<radialGradient id="radial0" gradientUnits="userSpaceOnUse" cx="450.908936" cy="189.579361" fx="450.908936" fy="189.579361" r="21.166656" gradientTransform="matrix(0.000000696681,-0.31253,-0.562554,-0.000000406154,205.876508,254.38133)">
<stop offset="0" style="stop-color:rgb(0%,0%,0%);stop-opacity:0.313725;"/>
<stop offset="0.222222" style="stop-color:rgb(0%,0%,0%);stop-opacity:0.27451;"/>
<stop offset="1" style="stop-color:rgb(0%,0%,0%);stop-opacity:0;"/>
</radialGradient>
<radialGradient id="radial1" gradientUnits="userSpaceOnUse" cx="450.908936" cy="189.579361" fx="450.908936" fy="189.579361" r="21.166656" gradientTransform="matrix(-0.000000696681,0.31253,0.562554,0.000000406154,-78.864388,-30.109915)">
<stop offset="0" style="stop-color:rgb(0%,0%,0%);stop-opacity:0.313725;"/>
<stop offset="0.222222" style="stop-color:rgb(0%,0%,0%);stop-opacity:0.27451;"/>
<stop offset="1" style="stop-color:rgb(0%,0%,0%);stop-opacity:0;"/>
</radialGradient>
<radialGradient id="radial2" gradientUnits="userSpaceOnUse" cx="450.908936" cy="189.579361" fx="450.908936" fy="189.579361" r="21.166656" gradientTransform="matrix(-0.000000696681,-0.31253,0.562554,-0.000000406154,-78.864388,254.38133)">
<stop offset="0" style="stop-color:rgb(0%,0%,0%);stop-opacity:0.313725;"/>
<stop offset="0.222222" style="stop-color:rgb(0%,0%,0%);stop-opacity:0.27451;"/>
<stop offset="1" style="stop-color:rgb(0%,0%,0%);stop-opacity:0;"/>
</radialGradient>
<radialGradient id="radial3" gradientUnits="userSpaceOnUse" cx="450.908936" cy="189.579361" fx="450.908936" fy="189.579361" r="21.166656" gradientTransform="matrix(0.000000696681,0.31253,-0.562554,0.000000406154,205.8765,-30.109917)">
<stop offset="0" style="stop-color:rgb(0%,0%,0%);stop-opacity:0.313725;"/>
<stop offset="0.222222" style="stop-color:rgb(0%,0%,0%);stop-opacity:0.27451;"/>
<stop offset="1" style="stop-color:rgb(0%,0%,0%);stop-opacity:0;"/>
</radialGradient>
<linearGradient id="linear1" gradientUnits="userSpaceOnUse" x1="306.916656" y1="-25.791676" x2="305.954559" y2="-141.414581" gradientTransform="matrix(0.301399,0,0,0.869648,-23.416052,134.565393)">
<stop offset="0" style="stop-color:rgb(61.960784%,61.960784%,61.960784%);stop-opacity:1;"/>
<stop offset="1" style="stop-color:rgb(74.117647%,74.117647%,74.117647%);stop-opacity:1;"/>
</linearGradient>
<linearGradient id="linear2" gradientUnits="userSpaceOnUse" x1="253.278412" y1="-37.962509" x2="253.278412" y2="-129.243744" gradientTransform="matrix(1.20548,0,0,3.478261,-93.655266,323.210175)">
<stop offset="0" style="stop-color:rgb(25.882353%,25.882353%,25.882353%);stop-opacity:1;"/>
<stop offset="1" style="stop-color:rgb(38.039216%,38.039216%,38.039216%);stop-opacity:1;"/>
</linearGradient>
<linearGradient id="linear3" gradientUnits="userSpaceOnUse" x1="254" y1="64.166664" x2="254" y2="43" gradientTransform="matrix(0.250024,0,0,2.750263,-0.00000504361,-90.800327)">
<stop offset="0" style="stop-color:rgb(95.686275%,26.27451%,21.176471%);stop-opacity:0.784314;"/>
<stop offset="1" style="stop-color:rgb(95.686275%,26.27451%,21.176471%);stop-opacity:0;"/>
</linearGradient>
<linearGradient id="linear4" gradientUnits="userSpaceOnUse" x1="254" y1="191.166672" x2="254" y2="-115.75" gradientTransform="matrix(0.250024,0,0,0.250024,0,53.755133)">
<stop offset="0" style="stop-color:rgb(93.333333%,93.333333%,93.333333%);stop-opacity:1;"/>
<stop offset="1" style="stop-color:rgb(96.078431%,96.078431%,96.078431%);stop-opacity:1;"/>
</linearGradient>
<linearGradient id="linear5" gradientUnits="userSpaceOnUse" x1="254" y1="127.666672" x2="254" y2="-115.75" gradientTransform="matrix(0.250024,0,0,0.250024,0,53.755132)">
<stop offset="0" style="stop-color:rgb(95.686275%,26.27451%,21.176471%);stop-opacity:0.117647;"/>
<stop offset="1" style="stop-color:rgb(95.686275%,26.27451%,21.176471%);stop-opacity:0;"/>
</linearGradient>
</defs>
<g id="surface1">
<path style=" stroke:none;fill-rule:nonzero;fill:url(#linear0);" d="M 26.460938 112.136719 L 100.550781 112.136719 L 100.550781 117.429688 L 26.460938 117.429688 Z M 26.460938 112.136719 "/>
<path style=" stroke:none;fill-rule:nonzero;fill:url(#radial0);" d="M 100.550781 112.136719 L 111.136719 112.136719 L 111.136719 106.84375 L 100.550781 106.84375 Z M 100.550781 112.136719 "/>
<path style=" stroke:none;fill-rule:nonzero;fill:url(#radial1);" d="M 26.460938 112.136719 L 15.875 112.136719 L 15.875 117.429688 L 26.460938 117.429688 Z M 26.460938 112.136719 "/>
<path style=" stroke:none;fill-rule:nonzero;fill:url(#radial2);" d="M 26.460938 112.136719 L 15.875 112.136719 L 15.875 106.84375 L 26.460938 106.84375 Z M 26.460938 112.136719 "/>
<path style=" stroke:none;fill-rule:nonzero;fill:url(#radial3);" d="M 100.550781 112.136719 L 111.136719 112.136719 L 111.136719 117.429688 L 100.550781 117.429688 Z M 100.550781 112.136719 "/>
<path style=" stroke:none;fill-rule:nonzero;fill:url(#linear1);" d="M 21.167969 11.585938 L 105.84375 11.585938 C 108.765625 11.585938 111.136719 13.953125 111.136719 16.875 L 111.136719 106.84375 C 111.136719 109.765625 108.765625 112.136719 105.84375 112.136719 L 21.167969 112.136719 C 18.246094 112.136719 15.875 109.765625 15.875 106.84375 L 15.875 16.875 C 15.875 13.953125 18.246094 11.585938 21.167969 11.585938 Z M 21.167969 11.585938 "/>
<path style=" stroke:none;fill-rule:nonzero;fill:rgb(0%,0%,0%);fill-opacity:0.196078;" d="M 21.167969 112.136719 C 18.238281 112.136719 15.875 109.777344 15.875 106.84375 L 15.875 106.183594 C 15.875 109.113281 18.238281 111.472656 21.167969 111.472656 L 105.84375 111.472656 C 108.773438 111.472656 111.136719 109.113281 111.136719 106.183594 L 111.136719 106.84375 C 111.136719 109.777344 108.773438 112.136719 105.84375 112.136719 Z M 21.167969 112.136719 "/>
<path style=" stroke:none;fill-rule:nonzero;fill:rgb(90.196079%,90.196079%,90.196079%);fill-opacity:0.937255;" d="M 21.167969 11.585938 C 18.238281 11.585938 15.875 13.945312 15.875 16.875 L 15.875 17.539062 C 15.875 14.605469 18.238281 12.242188 21.167969 12.246094 L 105.84375 12.246094 C 108.773438 12.242188 111.136719 14.605469 111.136719 17.539062 L 111.136719 16.875 C 111.136719 13.945312 108.773438 11.585938 105.84375 11.585938 Z M 21.167969 11.585938 "/>
<path style="fill-rule:nonzero;fill:url(#linear2);stroke-width:3;stroke-linecap:round;stroke-linejoin:miter;stroke:rgb(12.941177%,12.941177%,12.941177%);stroke-opacity:1;stroke-miterlimit:4;" d="M 97.475067 -147.506445 L 410.523297 -147.506445 C 417.600746 -147.506445 423.334574 -142.756899 423.334574 -136.913707 L 423.334574 201.757077 C 423.334574 207.600269 417.600746 212.334192 410.523297 212.334192 L 97.475067 212.334192 C 90.397617 212.334192 84.66379 207.600269 84.66379 201.757077 L 84.66379 -136.913707 C 84.66379 -142.756899 90.397617 -147.506445 97.475067 -147.506445 Z M 97.475067 -147.506445 " transform="matrix(0.250024,0,0,0.250024,0,53.755133)"/>
<path style=" stroke:none;fill-rule:nonzero;fill:rgb(12.941177%,12.941177%,12.941177%);fill-opacity:1;" d="M 21.167969 11.210938 C 18.035156 11.210938 15.5 13.742188 15.5 16.875 L 15.5 106.84375 C 15.5 109.976562 18.035156 112.511719 21.167969 112.511719 L 105.84375 112.511719 C 108.976562 112.511719 111.511719 109.976562 111.511719 106.84375 L 111.511719 16.875 C 111.511719 13.742188 108.976562 11.210938 105.84375 11.210938 Z M 21.167969 11.960938 L 105.84375 11.960938 C 108.574219 11.960938 110.761719 14.144531 110.761719 16.875 L 110.761719 106.84375 C 110.761719 109.574219 108.574219 111.761719 105.84375 111.761719 L 21.167969 111.761719 C 18.4375 111.761719 16.25 109.574219 16.25 106.84375 L 16.25 16.875 C 16.25 14.144531 18.4375 11.960938 21.167969 11.960938 Z M 21.167969 11.960938 "/>
<path style=" stroke:none;fill-rule:nonzero;fill:url(#linear3);" d="M 21.167969 27.460938 L 105.84375 27.460938 L 105.84375 85.675781 L 21.167969 85.675781 Z M 21.167969 27.460938 "/>
<path style=" stroke:none;fill-rule:nonzero;fill:url(#linear4);" d="M 34.398438 24.816406 L 92.613281 24.816406 C 95.535156 24.816406 97.90625 27.183594 97.90625 30.105469 L 97.90625 96.257812 C 97.90625 99.183594 95.535156 101.550781 92.613281 101.550781 L 34.398438 101.550781 C 31.476562 101.550781 29.105469 99.183594 29.105469 96.257812 L 29.105469 30.105469 C 29.105469 27.183594 31.476562 24.816406 34.398438 24.816406 Z M 34.398438 24.816406 "/>
<path style=" stroke:none;fill-rule:nonzero;fill:url(#linear5);" d="M 34.398438 24.816406 C 31.46875 24.816406 29.105469 27.175781 29.105469 30.105469 L 29.105469 85.675781 L 97.90625 85.675781 L 97.90625 30.105469 C 97.90625 27.175781 95.542969 24.816406 92.613281 24.816406 Z M 34.398438 24.816406 "/>
<path style=" stroke:none;fill-rule:nonzero;fill:rgb(100%,100%,100%);fill-opacity:0.392157;" d="M 34.398438 24.816406 C 31.46875 24.816406 29.105469 27.175781 29.105469 30.105469 L 29.105469 31.429688 C 29.105469 28.5 31.46875 26.136719 34.398438 26.136719 L 92.613281 26.136719 C 95.542969 26.136719 97.90625 28.5 97.90625 31.429688 L 97.90625 30.105469 C 97.90625 27.175781 95.542969 24.816406 92.613281 24.816406 Z M 34.398438 24.816406 "/>
<path style=" stroke:none;fill-rule:nonzero;fill:rgb(0%,0%,0%);fill-opacity:0.156863;" d="M 34.398438 101.550781 C 31.46875 101.550781 29.105469 99.191406 29.105469 96.257812 L 29.105469 94.9375 C 29.105469 97.867188 31.46875 100.226562 34.398438 100.226562 L 92.613281 100.226562 C 95.542969 100.226562 97.90625 97.867188 97.90625 94.9375 L 97.90625 96.257812 C 97.90625 99.191406 95.542969 101.550781 92.613281 101.550781 Z M 34.398438 101.550781 "/>
<path style=" stroke:none;fill-rule:nonzero;fill:rgb(12.941177%,12.941177%,12.941177%);fill-opacity:1;" d="M 34.398438 24.441406 C 31.265625 24.441406 28.730469 26.972656 28.730469 30.105469 L 28.730469 96.257812 C 28.730469 99.390625 31.265625 101.925781 34.398438 101.925781 L 92.613281 101.925781 C 95.746094 101.925781 98.28125 99.390625 98.28125 96.257812 L 98.28125 30.105469 C 98.28125 26.972656 95.746094 24.441406 92.613281 24.441406 Z M 34.398438 25.191406 L 92.613281 25.191406 C 95.34375 25.191406 97.53125 27.375 97.53125 30.105469 L 97.53125 96.257812 C 97.53125 98.988281 95.34375 101.175781 92.613281 101.175781 L 34.398438 101.175781 C 31.667969 101.175781 29.480469 98.988281 29.480469 96.257812 L 29.480469 30.105469 C 29.480469 27.375 31.667969 25.191406 34.398438 25.191406 Z M 34.398438 25.191406 "/>
</g>
</svg>

<svg xmlns="http://www.w3.org/2000/svg" width="128pt" height="128pt" viewBox="0 0 128 128"><defs><linearGradient id="a" gradientUnits="userSpaceOnUse" x1="254" y1="233.5" x2="254" y2="254.667" gradientTransform="matrix(.25002 0 0 .25002 0 53.755)"><stop offset="0" stop-opacity=".275"/><stop offset="1" stop-opacity="0"/></linearGradient><radialGradient id="b" gradientUnits="userSpaceOnUse" cx="450.909" cy="189.579" fx="450.909" fy="189.579" r="21.167" gradientTransform="matrix(0 -.31253 -.56255 0 205.877 254.381)"><stop offset="0" stop-opacity=".314"/><stop offset=".222" stop-opacity=".275"/><stop offset="1" stop-opacity="0"/></radialGradient><radialGradient id="c" gradientUnits="userSpaceOnUse" cx="450.909" cy="189.579" fx="450.909" fy="189.579" r="21.167" gradientTransform="matrix(0 .31253 .56255 0 -78.864 -30.11)"><stop offset="0" stop-opacity=".314"/><stop offset=".222" stop-opacity=".275"/><stop offset="1" stop-opacity="0"/></radialGradient><radialGradient id="d" gradientUnits="userSpaceOnUse" cx="450.909" cy="189.579" fx="450.909" fy="189.579" r="21.167" gradientTransform="matrix(0 -.31253 .56255 0 -78.864 254.381)"><stop offset="0" stop-opacity=".314"/><stop offset=".222" stop-opacity=".275"/><stop offset="1" stop-opacity="0"/></radialGradient><radialGradient id="e" gradientUnits="userSpaceOnUse" cx="450.909" cy="189.579" fx="450.909" fy="189.579" r="21.167" gradientTransform="matrix(0 .31253 -.56255 0 205.876 -30.11)"><stop offset="0" stop-opacity=".314"/><stop offset=".222" stop-opacity=".275"/><stop offset="1" stop-opacity="0"/></radialGradient><linearGradient id="f" gradientUnits="userSpaceOnUse" x1="306.917" y1="-25.792" x2="305.955" y2="-141.415" gradientTransform="matrix(.3014 0 0 .86965 -23.416 134.565)"><stop offset="0" stop-color="#9e9e9e"/><stop offset="1" stop-color="#bdbdbd"/></linearGradient><linearGradient id="g" gradientUnits="userSpaceOnUse" x1="253.278" y1="-37.963" x2="253.278" y2="-129.244" gradientTransform="matrix(1.20548 0 0 3.47826 -93.655 323.21)"><stop offset="0" stop-color="#424242"/><stop offset="1" stop-color="#616161"/></linearGradient><linearGradient id="h" gradientUnits="userSpaceOnUse" x1="254" y1="64.167" x2="254" y2="43" gradientTransform="matrix(.25002 0 0 2.75026 0 -90.8)"><stop offset="0" stop-color="#f44336" stop-opacity=".784"/><stop offset="1" stop-color="#f44336" stop-opacity="0"/></linearGradient><linearGradient id="i" gradientUnits="userSpaceOnUse" x1="254" y1="191.167" x2="254" y2="-115.75" gradientTransform="matrix(.25002 0 0 .25002 0 53.755)"><stop offset="0" stop-color="#eee"/><stop offset="1" stop-color="#f5f5f5"/></linearGradient><linearGradient id="j" gradientUnits="userSpaceOnUse" x1="254" y1="127.667" x2="254" y2="-115.75" gradientTransform="matrix(.25002 0 0 .25002 0 53.755)"><stop offset="0" stop-color="#f44336" stop-opacity=".118"/><stop offset="1" stop-color="#f44336" stop-opacity="0"/></linearGradient></defs><path d="M26.46 112.137h74.09v5.293H26.46zm0 0" fill="url(#a)"/><path d="M100.55 112.137h10.587v-5.293H100.55zm0 0" fill="url(#b)"/><path d="M26.46 112.137H15.876v5.293h10.586zm0 0" fill="url(#c)"/><path d="M26.46 112.137H15.876v-5.293h10.586zm0 0" fill="url(#d)"/><path d="M100.55 112.137h10.587v5.293H100.55zm0 0" fill="url(#e)"/><path d="M21.168 11.586h84.676a5.291 5.291 0 0 1 5.293 5.289v89.969a5.295 5.295 0 0 1-5.293 5.293H21.168a5.295 5.295 0 0 1-5.293-5.293V16.875a5.291 5.291 0 0 1 5.293-5.29zm0 0" fill="url(#f)"/><path d="M21.168 112.137a5.282 5.282 0 0 1-5.293-5.293v-.66c0 2.93 2.363 5.289 5.293 5.289h84.676c2.93 0 5.293-2.36 5.293-5.29v.66a5.282 5.282 0 0 1-5.293 5.294zm0 0" fill-opacity=".196"/><path d="M21.168 11.586a5.281 5.281 0 0 0-5.293 5.289v.664a5.28 5.28 0 0 1 5.293-5.293h84.676a5.28 5.28 0 0 1 5.293 5.293v-.664c0-2.93-2.364-5.29-5.293-5.29zm0 0" fill="#e6e6e6" fill-opacity=".937"/><path d="M97.475-147.506h313.048c7.078 0 12.812 4.75 12.812 10.592v338.671c0 5.843-5.734 10.577-12.812 10.577H97.475c-7.077 0-12.811-4.734-12.811-10.577v-338.67c0-5.844 5.734-10.593 12.811-10.593zm0 0" transform="matrix(.25002 0 0 .25002 0 53.755)" fill="url(#g)" stroke-width="3" stroke-linecap="round" stroke="#212121"/><path d="M21.168 11.21a5.661 5.661 0 0 0-5.668 5.665v89.969a5.665 5.665 0 0 0 5.668 5.668h84.676a5.665 5.665 0 0 0 5.668-5.668V16.875a5.661 5.661 0 0 0-5.668-5.664zm0 .75h84.676a4.896 4.896 0 0 1 4.918 4.915v89.969a4.9 4.9 0 0 1-4.918 4.918H21.168a4.9 4.9 0 0 1-4.918-4.918V16.875a4.896 4.896 0 0 1 4.918-4.914zm0 0" fill="#212121"/><path d="M21.168 27.46h84.676v58.216H21.168zm0 0" fill="url(#h)"/><path d="M34.398 24.816h58.215a5.291 5.291 0 0 1 5.293 5.29v66.152a5.292 5.292 0 0 1-5.293 5.293H34.398a5.292 5.292 0 0 1-5.293-5.293V30.105a5.291 5.291 0 0 1 5.293-5.289zm0 0" fill="url(#i)"/><path d="M34.398 24.816a5.281 5.281 0 0 0-5.293 5.29v55.57h68.801v-55.57c0-2.93-2.363-5.29-5.293-5.29zm0 0" fill="url(#j)"/><path d="M34.398 24.816a5.281 5.281 0 0 0-5.293 5.29v1.324a5.285 5.285 0 0 1 5.293-5.293h58.215a5.285 5.285 0 0 1 5.293 5.293v-1.325c0-2.93-2.363-5.289-5.293-5.289zm0 0" fill="#fff" fill-opacity=".392"/><path d="M34.398 101.55a5.282 5.282 0 0 1-5.293-5.292v-1.32c0 2.93 2.364 5.289 5.293 5.289h58.215c2.93 0 5.293-2.36 5.293-5.29v1.32a5.282 5.282 0 0 1-5.293 5.294zm0 0" fill-opacity=".157"/><path d="M34.398 24.441a5.661 5.661 0 0 0-5.668 5.664v66.153a5.665 5.665 0 0 0 5.668 5.668h58.215a5.665 5.665 0 0 0 5.668-5.668V30.105a5.661 5.661 0 0 0-5.668-5.664zm0 .75h58.215a4.896 4.896 0 0 1 4.918 4.914v66.153a4.9 4.9 0 0 1-4.918 4.918H34.398a4.9 4.9 0 0 1-4.918-4.918V30.105a4.896 4.896 0 0 1 4.918-4.914zm0 0" fill="#212121"/></svg>
